src/edit.svg

<svg viewBox="0 0 16 16" fill="none" xmlns="http://www.w3.org/2000/svg"><path fill-rule="evenodd" clip-rule="evenodd" d="M2 14L2.70622 10.4869L11.1762 2.00006L14 4.82856L5.52732 13.3127L2 14ZM3.62838 10.9748L9.06742 5.52667L10.4805 6.93974L5.04028 12.389L4 12.5981V12H3.42298L3.62838 10.9748ZM11.187 6.23205L9.77394 4.81897L11.1763 3.41431L12.5882 4.82857L11.187 6.23205Z" fill="#111111"/></svg>

<svg viewBox="0 0 16 16" fill="none" xmlns="http://www.w3.org/2000/svg"><path fill-rule="evenodd" clip-rule="evenodd" d="m2 14 .706-3.513L11.176 2 14 4.83l-8.473 8.484L2 14Zm1.628-3.025 5.44-5.448L10.48 6.94l-5.44 5.449-1.04.21V12h-.577l.205-1.025Zm7.559-4.743L9.774 4.819l1.402-1.405 1.412 1.415-1.401 1.403Z" fill="#111111"/></svg>
